X:99
T:Shindigo Jig
C:Greg Brown
D:JIIG:Ian Robb, James Stephens, Ian Clark and Greg Brown
Z:Robin Beech robin.beech@mcgill.ca
R:jig
M:6/8
L:1/8
K:G
A,CC A,CD | EGD E3 | EGD EGD | EDG EDC | A,CC A,CD |
EGD E3 | EDC B,DB, | CA,A, A,2B, :: CB,C CDE |
DEF G2A | BdA BdA | Bed BAG | E3 EFG |
DEF G2D | GFG GAB | AGF GDB, :|
